storage/app/icons/tabler/outline/brand-deezer.svg

<!--
tags: [music, media, sound, singer, brand, deezer, logo, company, trademark, identity]
category: Brand
version: "2.5"
unicode: "f78b"
-->
<svg
  xmlns="http://www.w3.org/2000/svg"
  width="24"
  height="24"
  viewBox="0 0 24 24"
  fill="none"
  stroke="currentColor"
  stroke-width="2"
  stroke-linecap="round"
  stroke-linejoin="round"
>
  <path d="M3 16.5h2v.5h-2l0 -.5" />
  <path d="M8 16.5h2.5v.5h-2.5l0 -.5" />
  <path d="M16 17h-2.5v-.5h2.5l0 .5" />
  <path d="M21.5 17h-2.5v-.5h2.5l0 .5" />
  <path d="M21.5 13h-2.5v.5h2.5l0 -.5" />
  <path d="M21.5 9.5h-2.5v.5h2.5l0 -.5" />
  <path d="M21.5 6h-2.5v.5h2.5l0 -.5" />
  <path d="M16 13h-2.5v.5h2.5l0 -.5" />
  <path d="M8 13.5h2.5v-.5h-2.5l0 .5" />
  <path d="M8 9.5h2.5v.5h-2.5l0 -.5" />
</svg>

<svg xmlns="http://www.w3.org/2000/svg" width="24" height="24" fill="none" stroke="currentColor" stroke-linecap="round" stroke-linejoin="round" stroke-width="2" viewBox="0 0 24 24"><path d="M3 16.5h2v.5H3zm5 0h2.5v.5H8zm8 .5h-2.5v-.5H16zm5.5 0H19v-.5h2.5zm0-4H19v.5h2.5zm0-3.5H19v.5h2.5zm0-3.5H19v.5h2.5zM16 13h-2.5v.5H16zm-8 .5h2.5V13H8zm0-4h2.5v.5H8z"/></svg>
